!!!!SEGMENT: pl-wn--mus-iii-105-719-1--013_zelenski-wladyslaw--25-preludyi-op-38-13-andante.krn
!!!cenid: 18xx:3746
!!!COM: Żeleński, Władysław
!!!COM-rismID: pe41024455
!!!CDT: 1837/07/06-1921/01/23
!!!CNT: Polish
!!!GTL: 25 preludyi op. 38
!!!OTL: 13. Andante
!!!PDT: 1881
!!!AGN:
!!!SMS-siglum: PL-Wn
!!!SMS-shelfmark: Mus.III.105.719/1
!!!SMS-shelfwork: 013 G
!!!SMS-variant:
!!!SMS-altvar:
!!!NIFC-rismSourceID:
!!!NIFC-rismChildID:
!!!NIFC-islandoraID: none
!!!URL-pdf-islandora:
!!!URL-scan: https://polona.pl/item/25-preludyi-2-3-i-4-glosowych-na-organ-lub-fisharmonike-do-uzytku-organistow-i,ODE1NjEwMzc/2 @EN{Scan on Polona} @PL{Skany w portalu Polona}
!!!ONB-nifc:
!!!AIN: 1 organ
!!!key: D
!!!OMD: 13. Andante.
**kern	**fing	**kern	**dynam	**fing
*part1	*	*part1	*part1	*
*staff2	*staff2	*staff1	*	*staff1
*	*	*ICklav	*	*
*	*	*Iorgan	*	*
*	*	*I"[Organ]	*	*
*	*	*I'	*	*
*clefF4	*	*clefG2	*	*
*k[f#c#]	*	*k[f#c#]	*	*
*D:	*	*D:	*	*
*M6/4	*	*M6/4	*	*
=1	=1	=1	=1	=1
*	*	*^	*	*
*	*	*	*	*	*^
*	*^	*	*	*	*	*
*xywh-#20:804,383,5097,895	*	*	*xywh-#20:804,383,5097,895	*xywh-#20:804,383,5097,895	*	*	*
!LO:TX:a:t=dolce molto tranquillo:i	!	!	!LO:TX:t=P:problem=palcowanie bezpośrednio nad główkami nut	!	!	!	!
(<2D\	.	5	(2f#/	8d\L	.	5	3
.	.	.	.	8c#\	.	.	2
.	.	.	.	8d\	.	.	3
.	.	.	.	8A\	.	.	1
4G\	.	.	4e/	8B\	.	4	2
.	.	.	.	8c#\J	.	.	3
2F#\	.	.	2a/	8d\L	.	5	1
.	.	.	.	8c#\	.	.	2
.	.	.	.	8d\	.	.	2
.	.	.	.	8A\	.	.	1
!LO:N:vis=2	!	!	!	!	!	!	!
4E\	.	1	4g/	8B\	.	5	2
.	.	.	.	8c#\J	.	.	3
=2	=2	=2	=2	=2	=2	=2	=2
4D/	.	.	2f#/)	8d\L	.	4	1
.	.	.	.	8c#\	.	.	2
4C#/	.	.	.	8d\	.	.	2
.	.	.	.	8e\	.	.	1
4BB/	.	.	(4dd/	8f#\	.	.	2
.	.	.	.	8g#X\J	.	.	3
2.AA/)	.	.	2cc#/)	8a\L	.	.	1
.	.	.	.	8b\	.	.	3
.	.	.	.	8a\	.	.	2
.	.	.	.	8gn\	.	.	1
.	.	.	4r	8f#\	.	.	3
.	.	.	.	8e\J	.	.	2
=3	=3	=3	=3	=3	=3	=3	=3
(4D\	.	4	(2f#/	8d\L	.	5	1
.	.	.	.	8c#\	.	.	2
4F#\	.	.	.	8d\	.	.	.
.	.	.	.	8A\	.	.	.
4G\	.	.	4e/	8B\	.	4	.
.	.	.	.	8c#\J	.	.	.
4F#\	.	.	4a/)	8d\L	<	.	1
.	.	.	.	8e\	.	.	2
4D\	.	.	4r	8f#\	.	.	3
.	.	.	.	8g\	.	.	1
4D#X\	.	3	(4ff#/	8a\	.	5	2
.	.	.	.	8b\J	[[	.	1
=4	=4	=4	=4	=4	=4	=4	=4
2.E\	.	.	4ee/)	8cc#\L	.	4	2
.	.	.	.	8a\	.	.	1
.	.	.	(4dd/	8f#\	.	5	2
.	.	.	.	8a\	.	.	3
.	.	.	4b/	8g#X\	.	4	2
.	.	.	.	8d\J	.	.	1
2AA/)	.	.	2a/)	8c#\L	>	5	2
.	.	.	.	8d\	.	.	1
.	.	.	.	8e\	.	.	2
.	.	.	.	8gn\	.	.	4
4r	.	.	4r	8f#\	.	.	3
.	.	.	.	8e\J	]	.	1
=5	=5	=5	=5	=5	=5	=5	=5
(8D/L	.	2	(2.a/	2f#\	p	3	2
8C#/	.	.	.	.	.	.	.
8D/	.	.	.	.	<	.	.
8AA/	.	.	.	.	.	.	.
8BB/	.	.	.	4g\	.	.	1
8C#/J	.	.	.	.	.	.	.
8D/L	.	.	4a/	2f#\	.	.	2
8C#/	.	.	.	.	.	.	.
8D/	.	.	4dd/	.	.	5	.
8AA/	.	.	.	.	.	.	.
8BB/	.	.	4ee/	4g\	.	4	1
8C#/J	.	.	.	.	.	.	.
=6	=6	=6	=6	=6	=6	=6	=6
8D\L	.	.	4ff#/	2f#\	.	5	1
8C#\	.	.	.	.	.	.	.
8D\	.	.	4dd/	.	.	4	.
8E\	1	.	.	.	.	.	.
8F#\	.	.	4b/	[4d\	.	3	1
8G#X\J	.	.	.	.	.	.	.
8A\L	.	1	2.a/	4d\]	.	5	.
8B\	.	2	.	.	.	.	.
8A\	.	.	.	(>8c#\L	.	.	2
8Gn\	.	.	.	8e\	.	.	1
8F#\	.	.	.	8f#\	.	.	2
8E\J)	.	2	.	8g\J	.	.	3
=7	=7	=7	=7	=7	=7	=7	=7
!!linebreak:original
*xywh-#20:804,1223,5079,719	*	*	*xywh-#20:804,1223,5079,719	*xywh-#20:804,1223,5079,719	*	*	*
(8D/L	.	.	[2.a/)	2f#\	.	.	2
8C#/	.	.	.	.	.	.	.
8D/	.	.	.	.	.	.	.
8AA/	.	.	.	.	.	.	.
8BB/	.	.	.	4g\	.	.	.
8C#/J	.	.	.	.	.	.	.
8D\L	.	.	4a/]	4f#\	.	.	.
8E\	.	1	.	.	.	.	.
8F#\	.	3	8dd/L	[2d\	.	5	1
8G\	.	.	8b/	.	.	4	.
8A\	.	.	8f#/	.	.	2	.
8B\J	.	2	8g/J	.	.	3	.
=8	=8	=8	=8	=8	=8	=8	=8
8cn\L	.	1	4.a/	4d\]	.	4	.
8A\	.	2	.	.	.	.	.
!	!	!	!LO:TX:b:t=espress.:i	!	!	!	!
8F#\	.	4	.	4d#X\	.	.	.
8A\	.	1	8ccn/	.	.	5	.
8G\	.	2	8b/L	4e\	.	4	1
8E\J	.	4	8g/J	.	.	3	.
8A\L	.	.	8f#/L	4c#\	.	4	2
8G\	.	.	8e/J	.	.	3	.
8F#\	.	.	8d#/L)	8d#\	.	.	1
8E\J	.	.	(8e/	8r	>	1	.
8D\)	.	.	8f#/	4r	.	.	.
8r	.	.	8g#X/J	.	]]	.	.
*	*	*	*v	*v	*	*	*
=9	=9	=9	=9	=9	=9	=9
*^	*	*	*	*	*	*
!	!LO:TX:t=1):b:Bi	!	!	!LO:TX:b:t=dolce:i	!	!	!
4r	[2.F#\	.	.	8a/L	.	.	.
.	.	.	.	8b/	.	.	.
(4f#/	.	1	.	8a/	.	.	.
.	.	.	.	8g#X/	.	.	.
4d/	.	2	.	8f#/	.	.	.
.	.	.	.	8g#/J	.	.	.
4c#/	2.F#\_	3	.	8a/L	.	.	.
.	.	.	.	8b/	.	.	.
4f#/	.	.	.	8a/	.	.	.
.	.	.	.	8g#/	.	.	.
4d/	.	.	.	8f#/	.	.	.
.	.	.	.	8g#/J	.	.	.
=10	=10	=10	=10	=10	=10	=10	=10
8c#/L	4.F#\]	3	.	8a/L	.	.	.
8B/J	.	1	.	8g#X/	.	.	.
4A/	.	2	.	8f#/	.	.	.
.	8r	.	.	8e#X/	.	.	.
4B/	([4D\	1	5_4	8g#/	.	4	.
.	.	.	.	8f#/J	.	.	.
2G#X/	4D\]	.	.	8fn/L	.	.	.
.	.	.	.	8f#X/	.	.	.
.	2C#\	.	.	8g#/	.	.	.
.	.	.	.	8c#/	.	.	.
4B/)	.	.	.	8d#X/	.	.	.
.	.	.	.	8e#/J	.	.	.
=11	=11	=11	=11	=11	=11	=11	=11
(8A/L	4F#\)	2	4	4f#/)	.	.	.
8B/	.	.	.	.	.	.	.
8A/	4r	.	.	(4ff#\	.	3	.
8G#X/	.	.	.	.	<	.	.
8F#/	4r	.	.	4dd\	.	1	.
8G#/J	.	.	.	.	.	.	.
8A/L	4F#\	.	.	4cc#\	.	2	.
8B/	.	.	.	.	.	.	.
8A/	4r	.	.	4ff#\	.	5	.
8G#/	.	.	.	.	.	.	.
8F#/	4r	.	.	4dd\	[	4	.
8G#/J	.	.	.	.	.	.	.
=12	=12	=12	=12	=12	=12	=12	=12
8A/L	4F#\	.	.	8cc#\L	.	.	.
8G#X/	.	.	.	8b\J	.	.	.
8F#/	4r	.	.	4a/)	.	.	.
8G#/	.	.	.	.	.	.	.
8A/	(4D#X\	.	5	4f#/	.	3	.
8B/J	.	.	.	.	.	.	.
8G#/L	2E\)	3	5	2e/	>	2	.
8F#/	.	.	.	.	.	.	.
8G#/	.	.	.	.	.	.	.
8B/	.	.	1	.	.	.	.
8c#/	4r	.	2	4r	]]	.	.
8d/J	.	.	1	.	.	.	.
*clefG2	*	*	*	*	*	*	*
=13	=13	=13	=13	=13	=13	=13	=13
!!linebreak:original
*xywh-#20:804,1891,5142,738	*xywh-#20:804,1891,5142,738	*	*	*xywh-#20:804,1891,5142,738	*	*	*
4e/	[2.A\	2	5	(8cc#\L	.	3	.
.	.	.	.	8dd\	.	.	.
4a/	.	.	.	8cc#\	.	.	.
.	.	.	.	8b\	.	.	.
4f#/	.	.	.	8a\	.	.	.
.	.	.	.	8b\J	.	.	.
4e/	2.A\_	.	.	8cc#\L	.	.	.
.	.	.	.	8ee\	.	.	.
4a/	.	.	.	8cc#\	.	.	.
.	.	.	.	8b\	.	.	.
4f#/	.	.	.	8a\	.	.	.
.	.	.	.	8b\J	.	.	.
=14	=14	=14	=14	=14	=14	=14	=14
8e/L	4.A\]	1	.	8cc#/L	.	.	.
8d/J	.	.	.	8b/	.	.	.
4c#/	.	.	.	8a/	.	.	.
.	8r	.	.	8g#X/	.	2	.
4d#X/	(4F#\	.	5_4	8b/	.	.	.
.	.	.	.	8a/J	.	.	.
*clefF4	*	*	*	*	*	*	*
2B/	4Fn\	.	5_4	8g#/L	.	.	.
.	.	.	.	8a/	.	.	.
.	2E\	.	5	8b/	.	.	.
.	.	.	.	8e/	.	.	.
4dn/)	.	.	.	8f#/	.	.	.
.	.	.	.	8g#/J	.	.	.
=15	=15	=15	=15	=15	=15	=15	=15
(8c#/L	[2.A\)	2	4	4a/)	.	.	.
8d/	.	.	.	.	.	.	.
!	!	!	!	!	!LO:HP:t=cresc. un poco	!	!
8c#/	.	.	.	(4aa\	<	5	.
8B/	.	.	.	.	.	.	.
8A/	.	.	.	4ff#\	.	.	.
8B/J	.	.	.	.	.	.	.
8c#/L	4A\]	.	.	4ee\	.	.	.
8B/	.	1	.	.	.	.	.
8A/	4r	.	.	4ff#\	.	.	.
8G#X/	.	.	.	.	.	.	.
8F#/	4r	.	.	4dd\	.	.	.
8G#/J	.	.	.	.	.	.	.
=16	=16	=16	=16	=16	=16	=16	=16
8A/L	[2.F#\	.	.	4cc#\)	.	2	.
8B/	.	.	.	.	.	.	.
8A/	.	.	.	(4ff#\	.	5	.
8G#X/	.	.	.	.	.	.	.
8F#/	.	.	.	4dd\	.	.	.
8G#/J	.	.	.	.	.	.	.
8A/L	4F#\]	.	.	4cc#\	.	.	.
8G#/	.	.	.	.	.	.	.
8F#/	4r	.	.	4dd\	.	.	.
8E/	.	1	.	.	.	.	.
8D/	4r	3	.	4b\	.	1	.
8E/J	.	2	.	.	.	.	.
=17	=17	=17	=17	=17	=17	=17	=17
*	*	*	*	*^	*	*	*
4F#/)	8r	1	.	2.a/	4ryy	.	3-5	.
.	(>8C#\L	.	2	.	.	.	.	.
4ryy	8FF#\	.	5	.	4d\	.	.	1
.	8GG#X\	.	4	.	.	.	.	.
2ryy	8AA\	.	3	.	4c#\	.	.	2
.	8BB\J	.	1	.	.	.	.	.
.	8C#\L	.	2	2.e#X/	4G#X\	.	.	1
.	8D\	.	1	.	.	.	.	.
2ryy	8BB\	.	3	.	4d\	.	.	2
.	8C#\	.	2	.	.	.	.	.
.	8AA\	.	1	.	8c#\L	.	.	1
.	8GG#\J	.	2	.	8B\J	.	.	2
*v	*v	*	*	*	*	*	*	*
=18	=18	=18	=18	=18	=18	=18	=18
8FF#\L	.	3	2.f#/	4A\	pp	.	1
8EE#X\	.	4	.	.	.	.	.
!	!	!	!LO:TX:b:t=poco riten.:i	!	!	!	!
8FF#\	.	3	.	4d\	.	.	3
8GG#X\	.	2	.	.	.	.	.
8AA\	.	1	.	4c#\	.	.	2
8BB\J	.	3	.	.	.	.	.
8C#\L	.	2	2.e#X/	4G#X\	.	.	.
8D\	.	1	.	.	.	.	.
8BB\	.	3	.	4d\	.	.	.
8C#\	.	2	.	.	.	.	.
8AA\	.	1	.	8c#\L	.	.	.
8GG#\J	.	2	.	8B\J	.	.	.
=19	=19	=19	=19	=19	=19	=19	=19
!!linebreak:original
*xywh-#20:798,2541,5104,738	*	*	*xywh-#20:798,2541,5104,738	*xywh-#20:798,2541,5104,738	*	*	*
8FF#\L	.	3	[2.f#/	[2.A\	<	.	.
8EE#X\	.	4	.	.	.	.	.
8FF#\	.	3	.	.	.	.	.
8AA\	.	1	.	.	.	.	.
8BB\	.	3	.	.	.	.	.
8C#\J)	.	2	.	.	.	.	.
!	!	!	!LO:TX:t=2):Bi	!	!	!	!
8FF#\	.	5	8f#/])	8A\L]	[	.	.
!	!	!	!	!LO:TX:t=P:klamra:problem	!	!	!
8r	1	.	8r	(<8E#X</	>	.	.
4r	2	.	4r	8F#</	.	.	.
.	1	.	.	8A</	.	.	.
4r	2	.	4r	8B</	.	.	.
.	3	.	.	8c#</J	.	.	.
=20	=20	=20	=20	=20	=20	=20	=20
(2D\	1	.	(2f#/	(8d\L)	]	5	.
!	!	!	!LO:TX:a:t=a tempo:i	!	!	!	!
!	!	!	!LO:TX:b:t=dolce:i	!	!	!	!
.	.	.	.	8c#\	.	2	.
.	.	.	.	8d\	.	3	.
.	.	.	.	8A\	.	.	.
4G\	.	.	4e/	8B\	.	.	.
.	.	.	.	8c#\J	.	.	.
2F#\	.	.	2a/	8d\L	.	.	.
.	.	.	.	8c#\	.	.	.
.	.	.	.	8d\	.	.	.
.	.	.	.	8A\	.	.	.
4E\	.	.	4g/	8B\	.	.	.
.	.	.	.	8c#\J	.	.	.
=21	=21	=21	=21	=21	=21	=21	=21
4D/	.	.	2f#/)	8d\L	.	.	.
.	.	.	.	8c#\	.	.	.
4C#/	.	.	.	8d\	.	.	.
.	.	.	.	8e\	.	.	.
4BB/	.	.	(4dd/	8f#\	.	.	.
.	.	.	.	8g#X\J	.	.	.
2.AA/)	.	.	2cc#/)	8a\L	.	.	.
.	.	.	.	8b\	.	.	.
.	.	.	.	8a\	.	.	.
.	.	.	.	8gn\	.	.	.
.	.	.	4r	8f#\	.	.	.
.	.	.	.	8e\J)	.	.	.
=22	=22	=22	=22	=22	=22	=22	=22
(8D/L	.	.	([2.a/	2f#\	.	.	.
8C#/	.	.	.	.	.	.	.
8D/	.	.	.	.	.	.	.
8AA/	.	.	.	.	.	.	.
8BB/	.	.	.	4g\	.	.	.
8C#/J	.	.	.	.	.	.	.
8D/L	.	.	4a/]	2f#\	.	.	.
8C#/	.	.	.	.	.	.	.
8D/	.	.	4dd/	.	.	.	.
8AA/	.	.	.	.	.	.	.
8BB/	.	.	4ee/	4g\	.	.	.
8C#/J	.	.	.	.	.	.	.
=23	=23	=23	=23	=23	=23	=23	=23
8D\L	.	.	4ff#/	2f#\	.	.	.
8C#\	.	.	.	.	.	.	.
8D\	.	.	4dd/	.	.	.	.
8E\	.	.	.	.	.	.	.
8F#\	.	.	4b/	[4d\	.	.	.
8G#X\J	.	.	.	.	.	.	.
8A\L	.	.	2.a/	4d\]	.	.	.
8B\	.	.	.	.	.	.	.
8A\	.	.	.	8c#\L	.	.	.
8Gn\	.	.	.	8e\	.	.	.
8F#\	.	.	.	8f#\	.	.	.
8E\J	.	.	.	8g\J	.	.	.
=24	=24	=24	=24	=24	=24	=24	=24
8D/L	.	.	[2.a/	2f#\	.	.	.
8C#/	.	.	.	.	.	.	.
8D/	.	.	.	.	.	.	.
8AA/	.	.	.	.	.	.	.
8BB/	.	.	.	4g\	.	.	.
8C#/J	.	.	.	.	.	.	.
8D\L	.	.	4a/]	4f#\	.	.	.
8E\	.	.	.	.	.	.	.
8F#\	.	.	8dd/L	[2d\	.	.	.
8G\	.	.	8b/	.	.	.	.
8A\	.	.	8f#/	.	.	.	.
8B\J	.	.	8g/J)	.	.	.	.
=25	=25	=25	=25	=25	=25	=25	=25
!!linebreak:original
*xywh-#20:785,3153,5123,1148	*	*	*xywh-#20:785,3153,5123,1148	*xywh-#20:785,3153,5123,1148	*	*	*
8cn\L	.	.	(4.a/	4d\]	.	.	.
8A\	.	.	.	.	.	.	.
8F#\	.	.	.	4d#X\	.	.	.
8A\	.	.	8ccn/	.	.	.	.
8G\	.	.	8b/L	4e\	.	.	.
8E\J	.	.	8g/J	.	.	.	.
8A\L	.	1	8f#/L	4c#\	.	.	.
8G\	.	2	8e/J	.	.	.	.
!	!	!	!LO:SIC:v:s=8dn/L	!LO:SIC:v:s=[2dn\	!	!	!
8F#\	.	3	8d#/L	[2d#\	.	.	.
8E\	.	1	8e/	.	.	.	.
8D\	.	2	8f#/	.	.	.	.
8Cn\J	.	3	8a/J	.	.	.	.
=26	=26	=26	=26	=26	=26	=26	=26
!	!	!	!	!LO:SIC:v:s=2.d\_	!	!	!
8BB/L	.	1	4dd/	2.d#\_	.	5	.
8AA/	.	.	.	.	.	.	.
8GG/	.	.	8b/L)	.	.	4	.
8EE/	.	5	(8g/	.	>	4	.
8FF#/	.	.	8f#/	.	.	.	.
8GG/J	.	.	8e/J	.	.	.	.
!	!	!	!	!LO:SIC:v:s=4.d\]	!	!	!
8AA/L	.	.	2f#/	4.d#\]	.	5	.
8GG#X/J	.	.	.	.	.	.	.
2AA/)	.	.	.	.	]	.	.
.	.	.	.	8B\	.	.	2
.	.	.	4e/	8c#\L	.	4	3
.	.	.	.	8G\J	.	.	1
=27	=27	=27	=27	=27	=27	=27	=27
(<8D\L	.	1	8ryy	8F#/ 8d/	.	5	2
8C#\	.	3	8r	8ryy	p	.	.
8D\	.	2	(4b/	4r	.	.	.
8E\	.	1	.	.	.	.	.
8F#\	.	3	4a/	4r	.	.	.
8G\J	.	2	.	.	.	.	.
8A\L	.	1	4e/	(2.c#\	.	.	1
8B\	.	2	.	.	.	.	.
8A\	.	1	4b/	.	.	.	.
8G\	.	2	.	.	.	.	.
8F#\	.	3	8a/L	.	.	.	.
8E\J	.	1	8g/J	.	.	.	.
=28	=28	=28	=28	=28	=28	=28	=28
8D/L	.	2	4f#/)	2d\)	.	.	1
8C#/	.	3	.	.	.	.	.
8D/	.	1	(4b/	.	.	5	.
8DD/	.	5	.	.	.	.	.
8EE/	.	.	4a/	[4cn\	.	4-5	1_2
8FF#/J	.	.	.	.	.	.	.
8GG/L	.	.	4d/	4c\]	<	3	.
8FF#/	.	.	.	.	.	.	.
8GG/	.	.	4g/	4.B\	.	5	1
8AA/	.	.	.	.	.	.	.
8BB/	.	.	8d/L	.	.	.	.
8C#/J	.	.	8e/J	8B-X\	[	4	2
*	*	*	*v	*v	*	*	*
=29	=29	=29	=29	=29	=29	=29
!	!	!	!	!LO:HP:t=dim.	!	!
8D/L	.	.	[2.A/ [2.f#	>	.	.
8DD/	.	.	.	.	.	.
8AA/	.	2	.	.	.	.
8D/	.	1	.	.	.	.
8E/	.	3	.	.	.	.
8F#/J	.	2	.	.	.	.
8D/)	.	4	8A/]) 8f#]L	.	.	.
8r	.	.	(>8A/	.	.	1
4r	.	.	8d/	.	.	2
.	.	.	8e/	.	.	3
4r	.	.	8f#/	.	.	4
.	.	.	8a/J	.	.	1
=30	=30	=30	=30	=30	=30	=30
1.DD	.	.	1.f#) 1.dd	pp	5	.
*	*v	*v	*	*	*	*
*	*	*	*	*v	*v
==	==	==	==	==
*-	*-	*-	*-	*-
!!!system-decoration: {(s1,s2)}
!!!RDF**kern: > = above
!!!RDF**kern: < = below
!!!ENC: Berenika Jozajtis
!!!END: 2022-03-11
!!!ENC: Krzysztof Stępień
!!!END: 2022-03-15
!!!IIIF: https://polona.pl/iiif/item/ODE1NjEwMzc/manifest.json
!!!ENC-iiif: Jan Barakat
!!!END-iiif: 2022-08-31
!!!YEC: Copyright 2022 Narodowy Instytut Fryderyka Chopina (https://polishscores.org)
!!!YEM: License CC-BY-4.0 (https://creativecommons.org/licenses/by/4.0)
